!!!COM:      Bach, Johann Sebastian
!!!CDT:      1685/03/31/-1750/07/28/
!!!OPR@@GER: Das wohltemperirte Clavier
!!!OVM@@GER: Band II
!!!OPR@ENG:  Well-Tempered Clavier
!!!OVM@ENG:  Book II
!!!OTL:      Fugue
!!!OKY:      C-sharp major
!!!ONM:      no. 3
!!!SCT:      BWV 872
!!!OMV:      2
**kern	**kern	**kern	**kern	**kern
*M4/4	*staff:13	*staff:14	*M4/4	*staff:14
*met(c)	*staff:13	*staff:14	*met(c)	*staff:14
*MM68	*MM68	*MM68	*MM68	*MM68
*	*clefF4	*clefG2	*	*clefG2
*	*k[f#c#g#d#a#e#b#]	*k[f#c#g#d#a#e#b#]	*	*k[f#c#g#d#a#e#b#]
*	*C#:	*C#:	*	*C#:
*	*M4/4	*M4/4	*	*M4/4
=1-	=1-	=1-	=1-	=1-
1ryy	8r	1r	1ryy	2r
.	8C#	.	.	.
.	8E#	.	.	.
.	8C#	.	.	.
.	8G#	.	.	8r
.	8r	.	.	8g#
.	8F#	.	.	8b#
.	8r	.	.	8g#
=2	=2	=2	=2	=2
1ryy	16E#	8r	1ryy	8cc#
.	16D#	.	.	.
.	[8C#	8g#	.	8r
.	16C#]	8e#	.	8bn
.	16D#	.	.	.
.	16E#	8g#	.	8r
.	16C#	.	.	.
.	8F#	8c#	.	16a#
.	.	.	.	16g#
.	8r	8r	.	[8f#
.	8FF#	8d#	.	16f#]
.	.	.	.	16g#
.	8r	8r	.	16a#
.	.	.	.	16f#
=3	=3	=3	=3	=3
1ryy	8r	16e#	1ryy	8g#
.	.	16f#	.	.
.	8C#	[8g#	.	8r
.	8AA#	16g#]	.	8cc#
.	.	16f#	.	.
.	8C#	16e#	.	8r
.	.	16g#	.	.
.	8FF#	16d#	.	8cc#
.	.	16e#	.	.
.	8AA#	[8f#	.	8r
.	8DD#	16f#]	.	8b#
.	.	16e#	.	.
.	8GG#	16d#	.	8r
.	.	16f#	.	.
=4	=4	=4	=4	=4
*	*staff:11	*staff:12	*	*staff:12
1ryy	8CC#	8e#	1ryy	8r
.	8r	8r	.	8cc#
.	8r	4r	.	8ee#
.	8c#	.	.	8cc#
.	8B#	8r	.	8gg#
.	8d#	8g#	.	8r
.	8G#	8b#	.	8ff#
.	8r	8g#	.	8r
=5	=5	=5	=5	=5
1ryy	8r	8cc#	1ryy	16ee#
.	.	.	.	16dd#
.	8C#	8r	.	[8cc#
.	8E#	8bn	.	16cc#]
.	.	.	.	16dd#
.	8C#	8r	.	16ee#
.	.	.	.	16cc#
.	8F#	8a#	.	16r
.	.	.	.	16dd#
.	8r	8r	.	16ff#
.	.	.	.	16dd#
.	8E#	16r	.	8gg#
.	.	16a#	.	.
.	8r	16cc##	.	8r
.	.	16a#	.	.
=6	=6	=6	=6	=6
1ryy	16r	8dd#	1ryy	8ff#
.	16D#	.	.	.
.	16BB#	8r	.	8r
.	16D#	.	.	.
.	8GG##	16r	.	8.ee#
.	.	16dd#	.	.
.	8AA#	[8cc#X	.	.
.	.	.	.	16ee#
.	8DD#	16cc#]	.	8ff##
.	.	8b#	.	.
.	8EE#	.	.	[8gg#
.	.	16b#	.	.
.	8CC#	8.a#	.	16gg#]
.	.	.	.	16gg#
.	8DD#	.	.	8ff##X
.	.	16cc#	.	.
=7	=7	=7	=7	=7
1ryy	8r	8b#	1ryy	8gg#
.	8GG#	8r	.	8r
.	8BB#	4r	.	4r
.	8GG#	.	.	.
.	8C#	8r	.	2r
.	8r	8G#	.	.
.	8BB#	8B#	.	.
.	8r	8G#	.	.
=8	=8	=8	=8	=8
*	*staff:9	*staff:10	*	*staff:10
1ryy	16AA#	8c#	1ryy	8r
.	16BB#	.	.	.
.	16C#	8r	.	8e#
.	16D#	.	.	.
.	16E#	8Bn	.	8g#
.	16F#	.	.	.
.	32G#	8r	.	8e#
.	32F#	.	.	.
.	16E#	.	.	.
.	8F#	16A#	.	8a#
.	.	16B#	.	.
.	8r	16c##	.	8r
.	.	16d#	.	.
.	8C##	16e#	.	8g#
.	.	16f#	.	.
.	8r	32g#	.	8r
.	.	32f#	.	.
.	.	16e#	.	.
=9	=9	=9	=9	=9
1ryy	8D#	8f#	1ryy	16f#
.	.	.	.	16g#
.	8r	8r	.	16a#
.	.	.	.	16b#
.	8r	8e#	.	16cc##
.	.	.	.	16dd#
.	8A#	8r	.	32ee#
.	.	.	.	32dd#
.	.	.	.	16cc##
.	8F#	8r	.	8dd#
.	8A#	8a#	.	8r
.	8D#	8f#	.	8r
.	8F##	8a#	.	8dd#
=10	=10	=10	=10	=10
1ryy	16G#	8d#	1ryy	8b#
.	16GG#	.	.	.
.	16AA#	8f#	.	8dd#
.	16BB#	.	.	.
.	16C#	8e#	.	8g#
.	16D#	.	.	.
.	32E#	[8g#	.	8cc#
.	32D#	.	.	.
.	16C#	.	.	.
.	8F#	16g#]	.	8a#
.	.	16g#	.	.
.	8D#	16f#	.	8r
.	.	16e#	.	.
.	8r	16d#	.	8b#
.	.	16c#	.	.
.	8G#	32B#	.	8r
.	.	32c#	.	.
.	.	16d#	.	.
=11	=11	=11	=11	=11
*	*staff:7	*staff:8	*	*staff:8
1ryy	8E#	8G#	1ryy	8cc#
.	8G#	8r	.	8gg#
.	8C#	8r	.	8ee#
.	8r	8c#	.	8gg#
.	8r	8e#	.	8cc#
.	8C#	8c#	.	8r
.	8E#	8g#	.	16r
.	.	.	.	16bn
.	8C#	8r	.	16a#
.	.	.	.	16g#
=12	=12	=12	=12	=12
1ryy	8F#	16r	1ryy	[4a#
.	.	16g#	.	.
.	8A#	16f#	.	.
.	.	16e#	.	.
.	8D#	8.f#	.	16a#]
.	.	.	.	16a#
.	8F#	.	.	8dd#
.	.	[16f#	.	.
.	8BB#	16f#]	.	[4g#
.	.	16f#	.	.
.	8G#	16e#	.	.
.	.	16d#	.	.
.	8C#	8.e#	.	16g#]
.	.	.	.	16g#
.	8E#	.	.	8cc#
.	.	[16e#	.	.
=13	=13	=13	=13	=13
1ryy	8AA#	16e#]	1ryy	[4f#
.	.	16e#	.	.
.	8F#	16d#	.	.
.	.	16c#	.	.
.	8BB#	8.d#	.	16f#]
.	.	.	.	16e#
.	8D#	.	.	8f#
.	.	[16d#	.	.
.	8GG##	16d#]	.	[4e#
.	.	16d#	.	.
.	8EE#	16c#	.	.
.	.	16B#	.	.
.	8AA#	8.c#	.	16e#]
.	.	.	.	16d#
.	8GG#X	.	.	[8e#
.	.	16B#	.	.
=14	=14	=14	=14	=14
1ryy	8FF#	16A#	1ryy	8.e#]
.	.	16G##	.	.
.	8EE#	[8A#	.	.
.	.	.	.	16e#
.	4FF#T	16A#]	.	4d#
.	.	16c#	.	.
.	.	16B#	.	.
.	.	16A#	.	.
.	8EE#	8G##X	.	8e#
.	8E#	8r	.	8r
.	8G##	4r	.	8r
.	8E#	.	.	8ee#
=15	=15	=15	=15	=15
*	*staff:5	*staff:5	*	*staff:6
*	*	*clefF4	*	*
1ryy	8A#	8r	1ryy	8cc#
.	8r	8A#	.	8ee#
.	8G#	8c##	.	8a#
.	8r	8A#	.	8r
.	16F##	8d#	.	8r
.	16E#	.	.	.
.	[8D#	8r	.	8aa#
.	16D#]	8c#X	.	8ff##
.	16E#	.	.	.
.	16F##X	8r	.	8aa#
.	16D#	.	.	.
=16	=16	=16	=16	=16
1ryy	8G#	16B#	1ryy	8dd#
.	.	16A#	.	.
.	8r	[8G#	.	8r
.	4r	16G#]	.	8ee#
.	.	16A#	.	.
.	.	16Bn	.	8r
.	.	16G#	.	.
.	2r	16A#	.	16ff#X
.	.	16B#	.	16gg#
.	.	16c#	.	[8aa#
.	.	16A#	.	.
.	.	16B#	.	16aa#]
.	.	16c#	.	16gg#
.	.	16d#	.	16ff#
.	.	16B#	.	16gg#
=17	=17	=17	=17	=17
1ryy	8r	[2c#	1ryy	16ee#
.	.	.	.	16ff#
.	8C#	.	.	[8gg#
.	8E#	.	.	16gg#]
.	.	.	.	16ff#
.	8C#	.	.	16ee#
.	.	.	.	16ff#
.	[2G#	8c#]	.	16dd#
.	.	.	.	16gg#
.	.	8c#	.	16ff#
.	.	.	.	16ee#
.	.	8B#	.	16dd#
.	.	.	.	16cc#
.	.	8e#	.	32b#
.	.	.	.	32cc#
.	.	.	.	16dd#
=18	=18	=18	=18	=18
1ryy	8G#]	4.A#	1ryy	16cc#
.	.	.	.	16a#
.	8G#	.	.	16b#
.	.	.	.	16cc#
.	[4F#	.	.	16dd#
.	.	.	.	16ee#
.	.	8d#	.	32ff#
.	.	.	.	32ee#
.	.	.	.	16dd#
.	8F#]	4G#	.	16cc#
.	.	.	.	16b#
.	8F#	.	.	16a#
.	.	.	.	16g#
.	8E#	16r	.	8cc#
.	.	16g#	.	.
.	8r	16e#	.	8r
.	.	16g#	.	.
=19	=19	=19	=19	=19
*	*staff:3	*staff:3	*	*staff:4
1ryy	16r	8c#	1ryy	8a#
.	16A#	.	.	.
.	16F#	8r	.	8r
.	16A#	.	.	.
.	8D#	16r	.	8ff#
.	.	16B#	.	.
.	8r	16G#	.	8r
.	.	16B#	.	.
.	8C#	8c#	.	16r
.	.	.	.	16ff#
.	8r	8G#	.	16ee#
.	.	.	.	16dd#
.	16r	[4c#	.	16ee#
.	16C#	.	.	16gg#
.	16E#	.	.	16cc#
.	16C#	.	.	16ee#
=20	=20	=20	=20	=20
1ryy	8F#	8c#]	1ryy	16a#
.	.	.	.	16ee#
.	8r	8A#	.	16dd#
.	.	.	.	16cc#
.	8r	[4F#	.	16dd#
.	.	.	.	16ff#
.	8D#	.	.	16b#
.	.	.	.	16dd#
.	8BB#	8F#]	.	16g#
.	.	.	.	16dd#
.	8r	8G#	.	16cc#
.	.	.	.	16b#
.	8r	8E#	.	16cc#
.	.	.	.	16ee#
.	8C#	[8e#	.	16g#
.	.	.	.	16bn
=21	=21	=21	=21	=21
1ryy	8FF#	16e#]	1ryy	8.a#
.	.	16c#	.	.
.	8F#	[8d#	.	.
.	.	.	.	16f#
.	8E#	16d#]	.	8.g#
.	.	16B#	.	.
.	8AA#	[8c#	.	.
.	.	.	.	16e#
.	8D#	16c#]	.	8.f#
.	.	16A#	.	.
.	8GG#	8B#	.	.
.	.	.	.	16d#
.	8C#	16r	.	[4e#
.	.	16c#	.	.
.	8CC#	16G#	.	.
.	.	16Bn	.	.
=22	=22	=22	=22	=22
*	*staff:1	*staff:2	*	*staff:2
*	*	*clefG2	*	*
1ryy	16FF#	2A#	1ryy	4e#_
.	16C#	.	.	.
.	16AA#	.	.	.
.	16C#	.	.	.
.	[4F#	.	.	16e#]
.	.	.	.	16d#
.	.	.	.	16f#
.	.	.	.	16d#
.	8F#]	16r	.	8B#X
.	.	[8.G#	.	.
.	8F#	.	.	16B#
.	.	.	.	16d#
.	8E#	16G#]	.	8.g#
.	.	16c#	.	.
.	8G#	8B#	.	.
.	.	.	.	16f#
=23	=23	=23	=23	=23
1ryy	8C#	16r	1ryy	8e#
.	.	[8.c#	.	.
.	8Bn	.	.	16e#
.	.	.	.	16g#
.	8A#	16c#]	.	8.cc#
.	.	16f#	.	.
.	8c#	8e#	.	.
.	.	.	.	16bn
.	8F#	16r	.	8a#
.	.	[8.f#	.	.
.	8E#	.	.	16a#
.	.	.	.	16cc#
.	8D#	16f#]	.	[4ff#
.	.	16bn	.	.
.	8F#	16a#	.	.
.	.	16dd#	.	.
=24	=24	=24	=24	=24
1ryy	8BB#	8g#	1ryy	16ff#]
.	.	.	.	16a#
.	8G#	8r	.	16b#X
.	.	.	.	16cc#
.	8B#	4r	.	16dd#
.	.	.	.	16ee#
.	8G#	.	.	32ff#
.	.	.	.	32ee#
.	.	.	.	16dd#
.	8c#	16r	.	16ee#
.	.	16B#	.	16ff#
.	8r	16c#	.	16ee#
.	.	16d#	.	16dd#
.	8A#	16e#	.	16cc#
.	.	16f##	.	16b#
.	8r	16g#	.	32a#
.	.	.	.	32b#
.	.	16f##	.	16cc#
=25	=25	=25	=25	=25
*	*staff:7	*staff:8	*	*staff:8
1ryy	16r	8g#	1ryy	8b#
.	16G#	.	.	.
.	16A#	8r	.	8gg#
.	16B#	.	.	.
.	16c#	4c#	.	8ee#
.	16d#	.	.	.
.	16e#	.	.	8gg#
.	16c#	.	.	.
.	8A#	4e#	.	16cc#
.	.	.	.	16ee#
.	8A#	.	.	16ff#
.	.	.	.	16gg#
.	8c#	4c#	.	16aa#
.	.	.	.	16bb#
.	8A#	.	.	16ccc#
.	.	.	.	16aa#
=26	=26	=26	=26	=26
1ryy	8d#	8f#	1ryy	16ff#
.	.	.	.	16gg#
.	8D#	8r	.	16ff#
.	.	.	.	16ee#
.	8BB#	8r	.	16dd#
.	.	.	.	16cc#
.	8D#	[8f#	.	16b#
.	.	.	.	16dd#
.	8E#	16f#]	.	[2g#
.	.	16a#	.	.
.	8EE#	16g#	.	.
.	.	16f#	.	.
.	8CC#	16e#	.	.
.	.	16d#	.	.
.	8EE#	16c#	.	.
.	.	16e#	.	.
=27	=27	=27	=27	=27
1ryy	4FF#	4A#	1ryy	16g#]
.	.	.	.	16c#
.	.	.	.	16d#
.	.	.	.	16e#
.	4D#	8r	.	16f#
.	.	.	.	16g#
.	.	8d#	.	16a#
.	.	.	.	16f#
.	4F#	8A#	.	16d#
.	.	.	.	16e#
.	.	8d#	.	16f#
.	.	.	.	16g#
.	4D#	8F#	.	16a#
.	.	.	.	16b#
.	.	[8f#	.	16cc#
.	.	.	.	16a#
=28	=28	=28	=28	=28
*	*staff:5	*staff:6	*	*staff:6
1ryy	[1G#	16f#]	1ryy	8b#
.	.	16g#	.	.
.	.	16f#	.	8dd#
.	.	16en	.	.
.	.	16d#	.	8b#
.	.	16c#	.	.
.	.	32B#	.	8dd#
.	.	32c#	.	.
.	.	16d#	.	.
.	.	16en	.	8g#
.	.	16f#	.	.
.	.	16e	.	8cc#
.	.	16d#	.	.
.	.	16c#	.	8een
.	.	16B#	.	.
.	.	32A#	.	8cc#
.	.	32B#	.	.
.	.	16c#	.	.
=29	=29	=29	=29	=29
*	*	*staff:5	*staff:6	*
*	*	*clefF4	*clefG2	*
*	*	*	*k[f#c#g#d#a#e#b#]	*
1ryy	1G#_	8B#	2ryy	16ff#
.	.	.	.	16aan
.	.	8d#	.	16gg#
.	.	.	.	16ff#
.	.	8c#	.	16een
.	.	.	.	16dd#
.	.	8en	.	32cc#
.	.	.	.	32dd#
.	.	.	.	16ee
.	.	8A#X	4ryy	16f##
.	.	.	.	16g#
.	.	8c#	.	16a#
.	.	.	.	16b#
.	.	4en	8ryy	16cc#
.	.	.	.	16dd#
.	.	.	8f##	32een
.	.	.	.	32dd#
.	.	.	.	16cc#
=30	=30	=30	=30	=30
1ryy	16G#]	8d#	8g#	8b#
.	16A#	.	.	.
.	16G#	8ryy	8r	8dd#
.	16F#	.	.	.
.	16E#X	4ryy	8r	[4gg#
.	16D#	.	.	.
.	32C##	.	8ee#X	.
.	32D#	.	.	.
.	16E#	.	.	.
.	16AA#	2ryy	8cc##	4gg#]
.	16A#	.	.	.
.	16B#	.	8ee#	.
.	16c##X	.	.	.
.	16d#	.	8a#	[4ff#
.	16e#	.	.	.
.	32f#	.	8dd#	.
.	32e#	.	.	.
.	16d#	.	.	.
=31	=31	=31	=31	=31
*	*staff:3	*staff:4	*staff:4	*staff:4
*	*	*clefG2	*	*
1ryy	16g#	2ryy	8b#	4ff#]
.	16f#	.	.	.
.	16e#	.	8dd#	.
.	16d#	.	.	.
.	16c#	.	8g#	[4ee#
.	16Bn	.	.	.
.	32A#	.	8cc#	.
.	32B	.	.	.
.	16c#	.	.	.
.	8F#	4ryy	16a#	8ee#_
.	.	.	16cc#	.
.	8DD#	.	8f#	32ee#]
.	.	.	.	32dd#
.	.	.	.	32cc#
.	.	.	.	32bn
.	8FF#	8ryy	8r	32a#
.	.	.	.	32g#
.	.	.	.	32f#
.	.	.	.	32e#
.	8DD#	32r	8ryy	[8f#
.	.	32e#	.	.
.	.	32d#	.	.
.	.	32c#	.	.
=32	=32	=32	=32	=32
*clefF4	*	*	*	*
*k[f#c#g#d#a#e#b#]	*	*	*	*
8r	[4GG#	16B#	16r	4f#_
.	.	16d#	[8.d#	.
32r	.	[8G#	.	.
32F#	.	.	.	.
32E#	.	.	.	.
32D#	.	.	.	.
32E#	8GG#_	4G#]	8d#]	8f#]
32D#	.	.	.	.
32C#	.	.	.	.
32BB#	.	.	.	.
8C#	32GG#]	.	8c#	[8e#
.	32AA#	.	.	.
.	32GG#	.	.	.
.	32FF##	.	.	.
2ryy	[4GG#	8r	[8c#	32e#]
.	.	.	.	32e#
.	.	.	.	32d#
.	.	.	.	32c#
.	.	8F##	32c#]	[8d#
.	.	.	32c#	.
.	.	.	32B#	.
.	.	.	32A#	.
.	32GG#]	4G#	[4B#	4d#_
.	32AA#	.	.	.
.	32BB#	.	.	.
.	32C#	.	.	.
.	32D#	.	.	.
.	32E#	.	.	.
.	32F#X	.	.	.
.	32D#	.	.	.
=33	=33	=33	=33	=33
*	*	*	*clefF4	*
4r	8E#	1ryy	16B#]	8d#]
.	.	.	8G#	.
.	8En	.	.	[8c#
.	.	.	16F##	.
4GG#	4D#	.	8.G#	16c#]
.	.	.	.	16c#
.	.	.	.	8B#
.	.	.	[16F#X	.
2CC#	[2C#	.	16F#]	[4c#
.	.	.	16F#	.
.	.	.	16E#	.
.	.	.	16D#	.
.	.	.	[4E#	16c#]
.	.	.	.	16G#
.	.	.	.	16Bn
.	.	.	.	16G#
=34	=34	=34	=34	=34
[1CC#	2C#_	1ryy	16E#]	[4A#
.	.	.	16G#	.
.	.	.	16F#	.
.	.	.	16E#	.
.	.	.	[4F#	16A#]
.	.	.	.	16A#
.	.	.	.	16c#
.	.	.	.	16A#
.	16C#]	.	4F#]	[4d#
.	16C#	.	.	.
.	16BB#	.	.	.
.	16AA#	.	.	.
.	4BB#	.	8r	16d#]
.	.	.	.	16e#
.	.	.	16r	[8f#
.	.	.	16G#	.
=35	=35	=35	=35	=35
*	*	*staff:1	*staff:2	*
*	*	*clefF4	*clefG2	*
1CC#]	4C#	2ryy	4A#	16f#]
.	.	.	.	16e#
.	.	.	.	16d#
.	.	.	.	[16f#
.	4D#	.	4B#	16f#]
.	.	.	.	16a#
.	.	.	.	16g#
.	.	.	.	16f#
.	2C#	2G#	2c#;y	2e#;
==	==	==	==	==
*-	*-	*-	*-	*-
!!!AFR:  fugue
!!!EFL:  54/96
!!!END:  1994/01/31/
!!!VID:  3485559347 Bach, BWV 872-02
!!!AST:  Baroque
!!!OCY:  Deutschland
!!!ODT:  1742///
!!!PDT:  1801///
!!!EED:  Walter Hewlett
!!!ENC:  Walter Hewlett
!!!YOR:  Bach Gesellschaft Edition xiv
!!!AFT:  enhanced SCORE
!!!RDT:  2011/10/07/ by Andreas Kornstaedt using massScr2hmd
!!!SCA1: Thematisch-systematisches Verzeichnis der musikalischen Werke 
!!!SCA2: Johann Sebastian Bach: Bach-Werke-Verzeichnis (Schmieder)
!!!YEC1: Copyright 1994, 2000 Center for Computer Assisted Research 
!!!YEC2: in the Humanities
!!!YEM1: Rights to all derivative editions reserved.
!!!YEM2: Refer to licensing agreement for further details.
!!!YEN:  United States of America
!!!ref:  @{OTL}, @{SCT}
!!muse2ps: T^@{OTL} @{ONM} in @{OKY}^C^J.S. Bach\n@{SCT}-@{OMV}^
!!muse2ps: u^@{OPR@ENG}, @{OVM@ENG}^j
